X:1
T:Clap Your Hands for Joy
T:Clap Your Hands for Joy
T:Robert Lowry
T:Robert Lowry, 1873, alt.
T:Public Domain Courtesy of the Cyber Hymnal™
T:Public Domain Courtesy of the Cyber Hymnal™
C:Robert Lowry
Z:Public Domain
Z:Courtesy of the Cyber Hymnal™
%%score ( 1 2 ) ( 3 4 )
L:1/8
Q:1/4=95
M:4/4
K:D
V:1 treble 
V:2 treble 
V:3 bass 
V:4 bass 
V:1
 [FA]3 [FA] [^E^G][FA][=GB][FA] | [EA]4 [EG]4 | [Gc]3 [Gc] [GB][GA][GB][Gc] | (d4 A4) | %4
w: 1.~Where the youth- ful son of|Jes- se|Touched the harp with sil- ver|strains, *|
w: 2.~All the world was locked in|slum- ber,|Calm and still the dew- y|night; *|
w: 3.~Thro’ the line of dis- tant|ag- es,|Swift- er than the march of|time, *|
 [FA]3 [FA] [^E^G][FA][=GB][FA] | [EA]4 [EG]4 | [Ec]3 [Ec] [EB][EA] [Ec]>[DB] | [CA]8 | %8
w: While the peace- ful flock he|tend- ed|Grazed up- on the fer- tile|plains—|
w: Ev- ery star in shin- ing|ar- mor|Keep- ing watch on loft- y|height;|
w: Like a ri- ver sweep- ing|on- ward,|Comes the might- y strain sub-|lime;|
 [Ge]3 [Ec] [DB][CA] [EG]>[CA] | [DF]4 [FA]4 | [GB]3 [Gc] [Gd][Ge] [Bd]>[GB] | [FA]8 | %12
w: Where he list- ened to the|mur- mur|Of the brook- let, soft and|low—|
w: Then a sud- den burst of|mu- sic!|Thro’ the air it rolled a-|long;|
w: Great Im- man- u- el, Prince|and Sav-|ior! Pure and spot- less, un-|de-|
 [Fd]3 [Fd] [Fd][Fd][Ad][Ad] | [Gd]4 [GB]2 [GB][GB] | [FA]3 [Fd] [Fd]2 [Ec]2 | [Fd]8 || %16
w: Came the bless- èd in- fant|Sav- ior, Ma- ny|cen- turies long a-|go.|
w: Mul- ti- tudes of shin- ing|an- gels Woke the|earth with heav’n- ly|song.|
w: filed, In Thy birth, O King|of Glory, God to|man is re- con-|ciled.|
"^Refrain" [Ge]3 [Ge] [Ge]3 [Fd] | ([Ac][GB]) ([FA][EG]) ([DF]>[EG]) [FA]2 | %18
w: ||
w: Clap your hands for|joy, * ye * peo- * ple,|
w: ||
 [GB]3 [GB] [^GB]3 [GB] | ([^Ge][Bd]) ([Ac][GB]) (c>d) e2 | [Fd]3 [Fc] [Fd]2 z2 | %21
w: |||
w: Clap your hands for|joy, * ye * peo- * ple,|Clap your hands,|
w: |||
 [Gd]3 [Gd] [Gd]2 z2 | .[^Gd]2 .[Gd]2 .[Gd]2 .[Bd]2 | [Ac]8 | (ec) (de) [Af]2 [Ad]2 | %25
w: ||||
w: clap your hands,|Hail the ris- ing|morn;|Shout * ho- * san- na,|
w: ||||
 (ec) (de) [Af]2 [Fd]2 | [Fd][Fd][Ac][GB] ([FA]>[EG] [DF]) z | %27
w: ||
w: shout * ho- * san- na,|Clap your hands for joy, * *|
w: ||
 [DB][DB][^Ge][Bd] ([Ac]>[EB] [EA]) z | [Fd]3 [Ad] [Gd][Fd] z2 | [Fd]3 [Ad] [Gd][Fd] z2 | %30
w: |||
w: Clap your hands for joy; * *|Shout ho- san- na,|shout ho- san- na,|
w: |||
 [Fd]2 [Fd]2 [Gd][Gd][Ad][Ge] | [Fd]2 [Ec]2 [Fd]4 |] %32
w: ||
w: Shout ho- san- na for a|Sav- ior born.|
w: ||
V:2
 x8 | x8 | x8 | F8 | x8 | x8 | x8 | x8 | x8 | x8 | x8 | x8 | x8 | x8 | x8 | x8 || x8 | x8 | x8 | %19
 x4 A2 (A=G) | x8 | x8 | x8 | x8 | A2 A2 x4 | A2 A2 x4 | x8 | x8 | x8 | x8 | x8 | x8 |] %32
V:3
 [D,D]3 [D,D] [D,D][D,D][D,D][D,D] | [A,,C]4 [A,,C]4 | [A,,E]3 [A,,E] [A,,D][A,,C][A,,D][A,,A,] | %3
w: ~ ~ ~ ~ ~ ~|~ ~|~ ~ ~ ~ ~ ~|
 (A,4 D4) | [D,D]3 [D,D] [D,D][D,D][D,D][D,D] | [A,,C]4 [A,,C]4 | %6
w: ~ *|~ ~ ~ ~ ~ ~|~ ~|
 [A,,A,]3 [C,A,] [E,D][E,C] [E,A,]>[E,^G,] | [A,,A,]8 | %8
w: ~ ~ ~ ~ ~ ~|~|
 [A,,A,]3 [A,,A,] [A,,A,][A,,A,] [A,,A,]>[A,,A,] | [D,A,]4 [D,D]4 | %10
w: ~ ~ ~ ~ ~ ~|~ ~|
 [G,D]3 [G,^A,] [G,B,][G,C] [G,D]>[G,D] | [D,D]8 | [B,D]3 [B,D] [B,D][B,D][F,D][F,=C] | %13
w: ~ ~ ~ ~ ~ ~|~|~ ~ ~ ~ ~ ~|
 [G,B,]4 [G,D]2 [G,D][G,D] | [A,D]3 [A,D] A,2 [A,,A,]2 | [D,A,]8 || %16
w: ~ ~ ~ ~|~ ~ ~ ~|~|
 [A,,A,]3 [A,,A,] [A,,A,]3 [A,,A,] | [A,,A,]2 [A,,A,]2 [D,A,]2 [D,D]2 | [G,D]3 [G,D] [E,E]3 [E,E] | %19
w: ~ ~ ~ ~|~ ~ ~ ~|~ ~ ~ ~|
 [E,E]2 [E,E]2 (E>D) [A,C]2 | [B,D]3 [B,D] [B,D]2 [B,D]2 | [G,B,]3 [G,B,] [G,B,]2 [G,B,]2 | %22
w: ~ ~ ~ * ~|Clap your hands for|joy, ye peo- ple|
 .[E,B,]2 .[E,B,]2 .[^G,E]2 .[G,E]2 | [A,E]8 | ([A,C][G,E]) ([F,D][E,C]) [D,D]2 [F,D]2 | %25
w: |||
 ([F,A,][G,E]) ([F,D][E,C]) [D,D]2 [D,A,]2 | [D,A,][D,A,][D,D][D,D] (D2 A,) z | %27
w: ||
 G,G,[E,B,][E,E] (E>D C) z | [D,D]3 [F,D] [G,B,][D,A,] z2 | [D,A,]3 [F,D] [G,B,][D,A,] z2 | %30
w: |||
 [B,D]2 [B,D]2 [G,B,][G,B,][F,D][G,B,] | A,2 [A,,A,]2 [D,A,]4 |] %32
w: ||
V:4
 x8 | x8 | x8 | D,8 | x8 | x8 | x8 | x8 | x8 | x8 | x8 | x8 | x8 | x8 | x4 A,2 x2 | x8 || x8 | x8 | %18
 x8 | x4 A,2 x2 | x8 | x8 | x8 | x8 | x8 | x8 | x4 D,3 x | G,G, x A,3 x2 | x8 | x8 | x8 | A,2 x6 |] %32

